toonz/sources/toonz/icons/dark/actions/20/type_rectangular.svg

<?xml version="1.0" encoding="UTF-8" standalone="no"?>
<!DOCTYPE svg PUBLIC "-//W3C//DTD SVG 1.1//EN" "http://www.w3.org/Graphics/SVG/1.1/DTD/svg11.dtd">
<svg width="20px" height="20px" version="1.1" xmlns="http://www.w3.org/2000/svg" xmlns:xlink="http://www.w3.org/1999/xlink" xml:space="preserve" xmlns:serif="http://www.serif.com/" style="fill-rule:evenodd;clip-rule:evenodd;stroke-linejoin:round;stroke-miterlimit:2;">
    <g transform="matrix(1,0,0,1,-10,-100)">
        <g id="type_rectangular">
            <g transform="matrix(1,0,0,1,0,90)">
                <rect x="10" y="10" width="20" height="20" style="fill-opacity:0;"/>
            </g>
            <g transform="matrix(1,0,0,1,10,100)">
                <path d="M16,18L16,17L17,17L17,16L18,16L18,18L16,18ZM3,17L4,17L4,18L2,18L2,16L3,16L3,17ZM14.5,17L12.5,17L12.5,18L14.5,18L14.5,17ZM11,17L9,17L9,18L11,18L11,17ZM7.5,17L5.5,17L5.5,18L7.5,18L7.5,17ZM3,12.5L2,12.5L2,14.5L3,14.5L3,12.5ZM18,12.5L17,12.5L17,14.5L18,14.5L18,12.5ZM3,9L2,9L2,11L3,11L3,9ZM18,9L17,9L17,11L18,11L18,9ZM3,5.5L2,5.5L2,7.5L3,7.5L3,5.5ZM18,5.5L17,5.5L17,7.5L18,7.5L18,5.5ZM4,2L4,3L3,3L3,4L2,4L2,2L4,2ZM18,4L17,4L17,3L16,3L16,2L18,2L18,4ZM11,2L9,2L9,3L11,3L11,2ZM14.5,2L12.5,2L12.5,3L14.5,3L14.5,2ZM7.5,2L5.5,2L5.5,3L7.5,3L7.5,2Z"/>
            </g>
            <g transform="matrix(1,0,0,1,-3.49413e-10,90)">
                <path d="M25,29.5C25,29.633 25.053,29.76 25.146,29.854C25.24,29.947 25.367,30 25.5,30C25.9,30 26.992,30 28,30C29.105,30 30,29.105 30,28C30,26.992 30,25.9 30,25.5C30,25.367 29.947,25.24 29.854,25.146C29.76,25.053 29.633,25 29.5,25C29.367,25 29.24,25.053 29.146,25.146C29.053,25.24 29,25.367 29,25.5C29,26.123 29,27.204 29,28C29,28.265 28.895,28.52 28.707,28.707C28.52,28.895 28.265,29 28,29C27.204,29 26.123,29 25.5,29C25.367,29 25.24,29.053 25.146,29.146C25.053,29.24 25,29.367 25,29.5ZM10.5,25C10.367,25 10.24,25.053 10.146,25.146C10.053,25.24 10,25.367 10,25.5C10,25.9 10,26.992 10,28C10,29.105 10.895,30 12,30C13.008,30 14.1,30 14.5,30C14.633,30 14.76,29.947 14.854,29.854C14.947,29.76 15,29.633 15,29.5C15,29.367 14.947,29.24 14.854,29.146C14.76,29.053 14.633,29 14.5,29C13.877,29 12.796,29 12,29C11.735,29 11.48,28.895 11.293,28.707C11.105,28.52 11,28.265 11,28C11,27.204 11,26.123 11,25.5C11,25.367 10.947,25.24 10.854,25.146C10.76,25.053 10.633,25 10.5,25ZM29.5,15C29.633,15 29.76,14.947 29.854,14.854C29.947,14.76 30,14.633 30,14.5C30,14.1 30,13.008 30,12C30,10.895 29.105,10 28,10C26.992,10 25.9,10 25.5,10C25.367,10 25.24,10.053 25.146,10.146C25.053,10.24 25,10.367 25,10.5C25,10.633 25.053,10.76 25.146,10.854C25.24,10.947 25.367,11 25.5,11C26.123,11 27.204,11 28,11C28.265,11 28.52,11.105 28.707,11.293C28.895,11.48 29,11.735 29,12C29,12.796 29,13.877 29,14.5C29,14.633 29.053,14.76 29.146,14.854C29.24,14.947 29.367,15 29.5,15ZM15,10.5C15,10.367 14.947,10.24 14.854,10.146C14.76,10.053 14.633,10 14.5,10C14.1,10 13.008,10 12,10C10.895,10 10,10.895 10,12C10,13.008 10,14.1 10,14.5C10,14.633 10.053,14.76 10.146,14.854C10.24,14.947 10.367,15 10.5,15C10.633,15 10.76,14.947 10.854,14.854C10.947,14.76 11,14.633 11,14.5C11,13.877 11,12.796 11,12C11,11.735 11.105,11.48 11.293,11.293C11.48,11.105 11.735,11 12,11C12.796,11 13.877,11 14.5,11C14.633,11 14.76,10.947 14.854,10.854C14.947,10.76 15,10.633 15,10.5Z"/>
            </g>
        </g>
    </g>
</svg>

<?xml version="1.0" encoding="UTF-8" standalone="no"?>
<!DOCTYPE svg PUBLIC "-//W3C//DTD SVG 1.1//EN" "http://www.w3.org/Graphics/SVG/1.1/DTD/svg11.dtd">
<svg width="100%" height="100%" viewBox="0 0 20 20" version="1.1" xmlns="http://www.w3.org/2000/svg" xmlns:xlink="http://www.w3.org/1999/xlink" xml:space="preserve" xmlns:serif="http://www.serif.com/" style="fill-rule:evenodd;clip-rule:evenodd;stroke-linejoin:round;stroke-miterlimit:2;">
    <g id="type_rectangular">
        <rect x="0" y="0" width="20" height="20" style="fill-opacity:0;"/>
        <path d="M16,18l0,-1l1,0l0,-1l1,0l0,2l-2,0Zm-13,-1l1,0l0,1l-2,0l0,-2l1,0l0,1Zm11.5,0l-2,0l0,1l2,0l0,-1Zm-3.5,0l-2,0l0,1l2,0l0,-1Zm-3.5,0l-2,0l0,1l2,0l0,-1Zm-4.5,-4.5l-1,0l0,2l1,0l0,-2Zm15,0l-1,0l0,2l1,0l0,-2Zm-15,-3.5l-1,0l0,2l1,0l0,-2Zm15,0l-1,0l0,2l1,0l0,-2Zm-15,-3.5l-1,0l0,2l1,0l0,-2Zm15,0l-1,0l0,2l1,0l0,-2Zm-14,-3.5l0,1l-1,0l0,1l-1,0l0,-2l2,0Zm14,2l-1,0l0,-1l-1,0l0,-1l2,0l0,2Zm-7,-2l-2,0l0,1l2,0l0,-1Zm3.5,0l-2,0l0,1l2,0l0,-1Zm-7,0l-2,0l0,1l2,0l0,-1Z"/>
        <path id="mode" d="M0,17l3,3l-2,-0c-0.552,-0 -1,-0.448 -1,-1c0,-0.873 0,-2 0,-2Zm3,-17l-3,3l0,-2c0,-0.552 0.448,-1 1,-1c0.873,-0 2,-0 2,-0Zm17,3l-3,-3l2,-0c0.552,0 1,0.448 1,1c0,0.873 0,2 0,2Zm-3,17l3,-3l0,2c-0,0.552 -0.448,1 -1,1c-0.873,-0 -2,0 -2,0Z"/>
    </g>
</svg>
